dist/svg/static/napster-small.svg

<svg xmlns="http://www.w3.org/2000/svg" width="24" height="24" viewBox="0 0 24 24"><path fill="none" stroke="currentColor" stroke-miterlimit="10" d="M7.5 7.5C6 6 4.5 6 4.5 6v8s1.3 5.5 7 5.5 7-5.5 7-5.5V6s-1.5 0-3 1.5c0 0-1.7-1.5-4-1.5s-4 1.5-4 1.5zM11 15.5h1M10 17.5h3"/><path d="M7 12h2s2 .1 2 2H9s-2-.1-2-2zM16 12h-2s-2 .1-2 2h2s2-.1 2-2z" fill="currentColor"/><g><path fill="none" stroke="currentColor" stroke-miterlimit="10" d="M6.323 6.598L6.5 6.3s1.6-2.8 5-2.8 5.4 2.8 5.4 2.8l.08.13"/><path d="M4 7.9s-1.9.9-1.9 2.6S4 13.1 4 13.1V7.9zM19 7.9s1.9.9 1.9 2.6-1.9 2.6-1.9 2.6V7.9z"/></g></svg>

<?xml version="1.0" encoding="UTF-8" standalone="no"?>
<svg width="24px" height="24px" viewBox="0 0 24 24" version="1.1" xmlns="http://www.w3.org/2000/svg" xmlns:xlink="http://www.w3.org/1999/xlink">
    <!-- Generator: sketchtool 46.2 (44496) - http://www.bohemiancoding.com/sketch -->
    <title>napster-small</title>
    <desc>Created with sketchtool.</desc>
    <defs></defs>
    <g id="icons-published" stroke="none" stroke-width="1" fill="none" fill-rule="evenodd">
        <g id="briefing" transform="translate(-1796.000000, -1050.000000)"></g>
        <g id="napster-small">
            <path d="M7.5,7.5 C6,6 4.5,6 4.5,6 L4.5,14 C4.5,14 5.8,19.5 11.5,19.5 C17.2,19.5 18.5,14 18.5,14 L18.5,6 C18.5,6 17,6 15.5,7.5 C15.5,7.5 13.8,6 11.5,6 C9.2,6 7.5,7.5 7.5,7.5 Z M11,15.5 L12,15.5 L11,15.5 Z M10,17.5 L13,17.5 L10,17.5 Z" id="Shape" stroke="#000000"></path>
            <path d="M7,12 L9,12 C9,12 11,12.1 11,14 L9,14 C9,14 7,13.9 7,12 Z M16,12 L14,12 C14,12 12,12.1 12,14 L14,14 C14,14 16,13.9 16,12 Z" id="Shape" fill="#000000" fill-rule="nonzero"></path>
            <path d="M6.3,6.6 L6.5,6.3 C6.5,6.3 8.1,3.5 11.5,3.5 C14.9,3.5 16.9,6.3 16.9,6.3 L17,6.4" id="Shape" stroke="#000000"></path>
            <path d="M4,7.9 C4,7.9 2.1,8.8 2.1,10.5 C2.1,12.2 4,13.1 4,13.1 L4,7.9 Z M19,7.9 C19,7.9 20.9,8.8 20.9,10.5 C20.9,12.2 19,13.1 19,13.1 L19,7.9 Z" id="Shape" fill="#000000" fill-rule="nonzero"></path>
        </g>
    </g>
</svg>
